X: 42497
T: What Colour Is That Horse?
R: jig
M: 6/8
K: Edorian
|:D|EGB eGB|ABG FED|EGB eGB|ABd e2 f|
g/a/bg efg|fdB AFD|EGB FAB|GEE E2:|
|:B|eBe GBe|dcd Adf|eBe Beg|f/g/ag fed|
eBe GBe|dcd AFD|EGB FAB|GEE E2:|

